X: 1
T: Polska efter Per Karlsson Viksten, Unders\aaker
M: 3/4
L: 1/8
N: Heimbygdas Spelmansf\"orbund \"Ostersund 1979
Z: 2009 John Chambers <jc:trillian.mit.edu>
S: Printed MS of unknown origin
%%slurgraces 1
K: G
V: 1
uc \
| {Bc}BA G2 (Bd) | (3d(cA) G2 g2 | {fg}f(e d)(e f)g |(3a(ba) (3g(fe) dc |
| {Bc}BA G2 (Bd) | (3d(cA) G2 g2 | (3g(fe) de fg | (3a(fa) g3 :|
|: g \
| gb ba af | (3d(ef) g2 G2 | (3G(AB) (3c(Ac) {Bc}BA | (3G(AB) (3c(Ac) B2 |
| g b2 a af | (3d(ef) g2 G2 | (3G(AB) (3c(Ac) (3{Bc}B(AG) | (3A(cA) G3 :|
V: 2
uA \
| GD B,2 (G,B,) | A,C B,2 ^C2 | D2 F2 E2 | ^C(D D)G FD |
| GD B,2 (G,B,) | A,C B,2 (^CD) | EG FE DE | =C2 B,3 :|
|: B \
| G2 F2 D2 | C2 B,2 G,2 | (3B,(A,G,) A,B, C2 | ((3B,A,G,) A,2 D(c |
| (3B)AG F2 ED | C2 B,2 G,2 | G=F E2 DE | C2 B,3 :|
